static/assets/img/icons/theme/shopping/cart-3.svg

<svg height="24" viewBox="0 0 24 24" width="24" xmlns="http://www.w3.org/2000/svg"><g fill="none" fill-rule="evenodd"><path d="m0 0h24v24h-24z" opacity="0"/><g fill="#000"><path d="m12 4.56204994-4.23177872 5.07813446c-.35356408.4242769-.98412878.481601-1.40840568.12803688-.4242769-.35356408-.48160096-.98412878-.12803688-1.40840568l4.99999998-6c.3997951-.47975413 1.1366475-.47975413 1.5364426 0l5 6c.3535641.4242769.29624 1.0548416-.1280369 1.40840568-.4242769.35356412-1.0548416.29624002-1.4084057-.12803688z" fill-rule="nonzero" opacity=".3"/><path d="m3.5 9h17c.5522847 0 1 .44771525 1 1 0 .132026-.0261438.2627452-.0769231.3846154l-3.6538461 8.7692308c-.4658087 1.1179408-1.5581282 1.8461538-2.7692308 1.8461538h-6c-1.21110255 0-2.3034221-.728213-2.76923077-1.8461538l-3.65384615-8.7692308c-.21241721-.50980132.02866023-1.09527511.53846154-1.30769232.12187017-.05077924.25258936-.07692308.38461538-.07692308zm8.5 8c1.1045695 0 2-.8954305 2-2s-.8954305-2-2-2-2 .8954305-2 2 .8954305 2 2 2z"/></g></g></svg>

<svg width="24px" height="24px" viewBox="0 0 24 24" version="1.1" xmlns="http://www.w3.org/2000/svg" xmlns:xlink="http://www.w3.org/1999/xlink">
    <title>Icon For Cart#3</title>
    <g stroke="none" stroke-width="1" fill="none" fill-rule="evenodd">
        <rect opacity="0" x="0" y="0" width="24" height="24"></rect>
        <path d="M12,4.56204994 L7.76822128,9.6401844 C7.4146572,10.0644613 6.7840925,10.1217854 6.3598156,9.76822128 C5.9355387,9.4146572 5.87821464,8.7840925 6.23177872,8.3598156 L11.2317787,2.3598156 C11.6315738,1.88006147 12.3684262,1.88006147 12.7682213,2.3598156 L17.7682213,8.3598156 C18.1217854,8.7840925 18.0644613,9.4146572 17.6401844,9.76822128 C17.2159075,10.1217854 16.5853428,10.0644613 16.2317787,9.6401844 L12,4.56204994 Z" fill="#000000" fill-rule="nonzero" opacity="0.3"></path>
        <path d="M3.5,9 L20.5,9 C21.0522847,9 21.5,9.44771525 21.5,10 C21.5,10.132026 21.4738562,10.2627452 21.4230769,10.3846154 L17.7692308,19.1538462 C17.3034221,20.271787 16.2111026,21 15,21 L9,21 C7.78889745,21 6.6965779,20.271787 6.23076923,19.1538462 L2.57692308,10.3846154 C2.36450587,9.87481408 2.60558331,9.28934029 3.11538462,9.07692308 C3.23725479,9.02614384 3.36797398,9 3.5,9 Z M12,17 C13.1045695,17 14,16.1045695 14,15 C14,13.8954305 13.1045695,13 12,13 C10.8954305,13 10,13.8954305 10,15 C10,16.1045695 10.8954305,17 12,17 Z" fill="#000000"></path>
    </g>
</svg>
